X:382
T: Betrogen (108), S. 262
N: T0271
O: Luxemburg
S: Singendes Volk, Esch-Alzette 1937 posth.]
N: Grevenmacher, fff Wilh. Weins, Esch-Alzette, 1914
R: Liebeslieder]
M: 6/8
L: 1/16
K: D
D2 | D4F2A4F2 | F2E2z6
D2 | D4AAA4E2 | F4z6
D2 | D2F2A2d2c2B2 | B2A2z6
A2 | A4B2G4A2 | F4z6

